X:49
T:5. Gaillarde
T:Ghequest bin ick
C:Tielman Susato
B:Tielman Susato: Danserye (1551) no. 49
R:Galliard
Z:Transcribed by Frank Nordberg - http://www.musicaviva.com
F:http://abc.musicaviva.com/tunes/susato-tielman/susato-1551-49.abc
M:3/2
L:1/2
K:Ddor
V:1
DDD|C2C|D>E F/D/|E2E|GFE|D>EF|ED2|^C2z:|
|:AAA|E2F|G>F E/D/|C2D|E>D C/B,/|A,2z:|
|:EEG|F>ED|CDF|E/F/G/F/E/D/|D2^C|D2z.|
V:2
A,A,A,|A,2A,|A,>G, A,/B,/|C2C|B,/C/DA,|A,2A,|CA,_B,|A,2z:|
A,DA,|C2C|DCE,|E,A,A,|B,A,>B,|C2z:|
|:CCB,/C/|D>CA,|A,A,>B,|C>CC|A,A,2|A,2z:|
V:3
F,F,F,|E,2E,|F,>G, A,/F,/|G,2G,|B,A,G,|F,>E,D,|E,F,G,|E,2z:|
|:F,F,F,|G,2A,|B,G,G,|A,2F,|G,E,2|F,2z:|
|:G,G,G,|A,>G,F,|E,F,F,|G,>A,G,|F,E,2|D,2z:|
V:4
D,D,D,|A,,2A,,|D,2D,|C,2C,|E,D,C,|D,2D,|C,D,G,,|A,,2z:|
|:D,D,D,|C,>B,,A,,|G,,C,C,|A,,2D,|G,,A,,2|F,,2z:|
|:C,C,E,|D,2D,|A,,D,2|C,>F,,C,|D,A,,2|D,2z:|
W:
W:
W:  From Musica Viva - http://www.musicaviva.com
W:  the Internet center for free sheet music downloads.
